X:1
T:Title
%%score { ( 1 4 ) | ( 2 3 ) }
L:1/8
Q:1/4=100
M:4/4
K:F
V:1 treble nm="Grand Piano"
V:4 treble 
V:2 bass 
V:3 bass 
V:1
 C>A A>B A2 G2 | C>E G>A F4 | D>[DF] [DB]>[Ed] c2 A2 | G>e e>d [Ec]4 | %4
w: Thoro~Harris * * * * *||||
 [Ed]>[EG] [EG]>[FA] [EB]>A [EB]2 | [Ec]>[EG] [_E^F]>[=EG] [EA]4 | G>F E>D C2 A2 | G>C A>G F4 | %8
w: ||||
 [Ac]4 [FA]4 | [Ac]4 [FA]4 | [CGB]>[C^FA] [CGB]>[CAc] [CGB]2 [B,CG]2 | %11
w: |||
[M:3/4] [A,FA]>[DGB] [CAc]>[_Ad] [=Ac]2 |[M:1/4] [Gc]2 |[M:4/4] [Fc]4 [FA]4 | %14
w: |||
[M:9/8] [FB]3- [FB] [Fd]2- [Fd]3 |[M:4/4] [Fc]>[Fd] [Fc]>[DGB] [CFA]2 [B,EG]2 | F6 z2 |] %17
w: |||
V:2
 [F,A,]>[F,C] [F,C]>[F,D] [C,E,C]2 [C,E,B,]2 | [C,E,B,]>[C,E,B,] [C,E,B,]>[C,E,C] [F,A,]4 | %2
 [B,,F,B,]>[B,,B,] [B,,B,]>[B,,B,] [F,A,F]2 [^F,C_E]2 | %3
 [G,CE]>[G,CG] [G,=B,G]>[G,B,F][K:bass] [C,C]4 | [C,B,]>[C,B,] [C,B,]>[C,A,] G,>[^F,_E] [C,G,]2 | %5
 [C,C]>[C,B,] [C,A,]>[C,B,] [^C,A,]4 | [D,A,D]>[D,F,A,] [=B,,F,_A,]>[B,,F,A,] [C,F,=A,]2 [C,F,C]2 | %7
 [C,E,B,]>[C,G,B,] [C,C]>[C,B,C] [F,A,C]4 | [F,C]2 F,2 F,2 F,2 | F,2 F,2 F,2 F,2 | %10
 C,>C, E,>E, G,2 E,2 |[M:3/4] F,>F, F,>[F,=B,] [F,C]2 |[M:1/4] [E,B,]2 | %13
[M:4/4] [F,A,]2 F,2 _E,2 E,2 |[M:9/8] D,2 D,- D, [=B,,_A,]2 z3 | %15
[M:4/4] [C,A,]>[=B,,_A,] [C,=A,]>C, C,2 C,2 | z2 B,2 A,2 z2 |] %17
V:3
 x8 | x8 | x8 | x4[K:bass] x4 | z4 C,2 z2 | x8 | x8 | x8 | x8 | x8 | x8 |[M:3/4] x6 |[M:1/4] x2 | %13
[M:4/4] x8 |[M:9/8] x9 |[M:4/4] x8 | F,6 z2 |] %17
V:4
 x8 | x8 | x8 | x8 | x8 | x8 | x8 | x8 | z2 C2 C2 C2 | F2 E2 C2 C2 | x8 |[M:3/4] x6 |[M:1/4] x2 | %13
[M:4/4] z2 A,2 C2 C2 |[M:9/8] B,2 B,- B, z z [=B,,_A,]3 |[M:4/4] x8 | A,2 D2 C2 z2 |] %17

